packages/foundations/assets/icons/functional/images/transportation/ship_16_inverted.svg

<svg width="16" height="16" viewBox="0 0 16 16" fill="none" xmlns="http://www.w3.org/2000/svg">
<g clip-path="url(#clip0_2214_7269)">
<path fill-rule="evenodd" clip-rule="evenodd" d="M12.6339 12.0778C12.973 12.4445 13.2905 12.6595 13.519 12.6595C13.8946 12.6595 14.199 12.9639 14.199 13.3395C14.199 13.715 13.8946 14.0195 13.519 14.0195C13.0367 14.0195 12.5725 13.8337 12.1262 13.4621C11.6426 13.8337 11.1574 14.0195 10.6705 14.0195C10.1837 14.0195 9.70331 13.8275 9.22944 13.4437C8.72625 13.8275 8.24268 14.0195 7.77872 14.0195C7.31477 14.0195 6.84528 13.8387 6.37024 13.4773C5.96343 13.8387 5.52834 14.0195 5.06498 14.0195C4.60161 14.0195 4.10737 13.827 3.58224 13.4421C3.19492 13.747 2.77385 13.8995 2.31904 13.8995C1.94348 13.8995 1.63904 13.5951 1.63904 13.2195C1.63904 12.8439 1.94348 12.5395 2.31904 12.5395C2.52744 12.5395 2.76196 12.3991 3.02258 12.1184C3.27396 11.7996 3.74678 11.7707 4.03512 12.0564C4.10997 12.1306 4.67028 12.6595 5.01061 12.6595C5.23057 12.6595 5.48037 12.4904 5.76003 12.1523C6.00561 11.7977 6.51502 11.7584 6.81207 12.0711C6.88031 12.143 7.42129 12.6593 7.77872 12.6595C8.11009 12.6596 8.67297 12.1439 8.74073 12.0723C9.01144 11.786 9.46807 11.789 9.73501 12.0788C9.80007 12.1494 10.3267 12.6595 10.6935 12.6595C10.919 12.6595 11.2501 12.4809 11.643 12.0697C11.9139 11.7862 12.3677 11.7899 12.6339 12.0778ZM10.119 1.98047C10.3999 1.98047 10.6483 2.15248 10.7503 2.40756L11.0254 3.48447L5.50387 3.49012C5.16945 3.49012 4.87171 3.81815 4.87171 4.16482C4.87171 4.51148 5.2112 4.84447 5.50387 4.84447H11.3654L11.6494 5.98047H13.6803C14.1 5.98047 14.4042 6.35047 14.3559 6.7419C14.3075 7.13333 13.291 9.20786 12.5236 9.97186C12.2555 10.2701 12.0081 10.4904 11.7813 10.6329C11.4411 10.8466 11.063 10.9747 10.6523 10.9747C10.2154 10.9747 9.75179 10.7969 9.26144 10.4413C8.7999 10.9177 8.3298 11.1639 7.85114 11.1798C7.37248 11.1958 6.88045 10.9816 6.37504 10.5373C5.96503 10.9669 5.52834 11.1817 5.06498 11.1817C4.60161 11.1817 4.13163 10.9642 3.65504 10.5293C3.2334 10.9642 2.78807 11.1817 2.31904 11.1817C1.97237 11.1817 1.63904 10.896 1.63904 10.5373V2.66047C1.63904 2.3138 1.89848 1.98047 2.31904 1.98047H10.119ZM10.3486 6.25324C9.90675 6.25324 9.54858 6.61142 9.54858 7.05324C9.54858 7.49507 9.90675 7.85324 10.3486 7.85324C10.7904 7.85324 11.1486 7.49507 11.1486 7.05324C11.1486 6.61142 10.7904 6.25324 10.3486 6.25324ZM7.14858 6.25324C6.70675 6.25324 6.34858 6.61142 6.34858 7.05324C6.34858 7.49507 6.70675 7.85324 7.14858 7.85324C7.59041 7.85324 7.94858 7.49507 7.94858 7.05324C7.94858 6.61142 7.59041 6.25324 7.14858 6.25324ZM3.94858 6.25324C3.50675 6.25324 3.14858 6.61142 3.14858 7.05324C3.14858 7.49507 3.50675 7.85324 3.94858 7.85324C4.39041 7.85324 4.74858 7.49507 4.74858 7.05324C4.74858 6.61142 4.39041 6.25324 3.94858 6.25324Z" fill="#1A1C1F"/>
</g>
<defs>
<clipPath id="clip0_2214_7269">
<rect width="16" height="16" fill="white"/>
</clipPath>
</defs>
</svg>

<svg xmlns="http://www.w3.org/2000/svg" width="16" height="16" fill="none"><g clip-path="url(#a)"><path fill="#1A1C1F" fill-rule="evenodd" d="M12.634 12.078c.339.367.656.582.885.582a.68.68 0 1 1 0 1.36q-.723 0-1.393-.558-.725.558-1.455.558t-1.442-.576q-.754.575-1.45.575t-1.409-.542q-.61.543-1.305.543t-1.483-.578q-.58.457-1.263.457a.68.68 0 1 1 0-1.36q.312 0 .704-.42a.68.68 0 0 1 1.012-.063c.075.075.635.604.976.604q.33 0 .749-.508a.68.68 0 0 1 1.052-.08c.068.071.61.587.967.588.331 0 .894-.516.962-.588a.68.68 0 0 1 .994.007c.065.07.592.58.959.58.225 0 .556-.178.949-.59a.68.68 0 0 1 .99.009M10.119 1.98c.28 0 .53.172.631.428l.275 1.076-5.521.006c-.335 0-.632.328-.632.675 0 .346.34.68.632.68h5.861l.284 1.135h2.031c.42 0 .724.37.676.762-.049.391-1.065 2.466-1.832 3.23q-.402.447-.743.66c-.34.215-.718.343-1.129.343q-.655 0-1.39-.534-.693.715-1.41.739-.72.024-1.477-.643-.615.645-1.31.645-.694 0-1.41-.653-.633.653-1.336.653c-.347 0-.68-.286-.68-.645V2.66c0-.346.26-.68.68-.68zm.23 4.273a.8.8 0 1 0 0 1.6.8.8 0 0 0 0-1.6m-3.2 0a.8.8 0 1 0 0 1.6.8.8 0 0 0 0-1.6m-3.2 0a.8.8 0 1 0 0 1.6.8.8 0 0 0 0-1.6" clip-rule="evenodd"/></g><defs><clipPath id="a"><path fill="#fff" d="M0 0h16v16H0z"/></clipPath></defs></svg>
